pro/src/icons/stroke-my-institution.svg

<svg width="375" height="165" viewBox="0 0 375 165" fill="none" xmlns="http://www.w3.org/2000/svg">
    <g id="icon">
        <path fill-rule="evenodd" clip-rule="evenodd" d="M12.1338 126C13.4042 126 14.4464 126.984 14.5468 128.234L14.5544 128.433L14.5544 133.752H19.8703C21.2122 133.752 22.3 134.838 22.3 136.176C22.3 137.446 21.3187 138.489 20.0696 138.59L19.8703 138.599L14.5544 138.598V144.886C14.5544 146.231 13.4712 147.32 12.1353 147.32C10.8634 147.32 9.82276 146.336 9.72235 145.087L9.71322 144.888V138.598H3.42972C2.08782 138.598 1 137.513 1 136.176C1 134.905 1.98132 133.862 3.23041 133.761L3.42972 133.754L9.71322 133.752L9.71322 128.433C9.71322 127.09 10.798 126 12.1338 126Z" fill="#CBCDD2"/>
        <path d="M41 113.949C41 111.216 43.2137 109 45.9446 109C48.6756 109 50.8893 111.216 50.8893 113.949C50.8893 116.682 48.6756 118.898 45.9446 118.898C43.2137 118.898 41 116.682 41 113.949Z" fill="#CBCDD2"/>
        <path d="M320.806 43.6194C320.681 42.0678 319.389 40.8496 317.813 40.8496C316.155 40.8496 314.81 42.2002 314.81 43.8661V50.4656H307.015L306.769 50.4763C305.219 50.6011 304 51.8954 304 53.4715C304 55.1312 305.351 56.4758 307.015 56.4758H314.811V64.2783L314.82 64.5249C314.945 66.0781 316.238 67.2963 317.813 67.2963C319.471 67.2963 320.815 65.9456 320.815 64.2783V56.4758L327.41 56.4773L327.657 56.4667C329.207 56.3418 330.426 55.049 330.426 53.4715C330.426 51.8117 329.075 50.4656 327.41 50.4656H320.816V43.8661L320.806 43.6194Z" fill="#CBCDD2"/>
        <path d="M367.276 6.91407C367.185 5.84207 366.242 5 365.093 5C363.883 5 362.902 5.93343 362.902 7.08461V11.6437L357.218 11.6452L357.039 11.6513C355.908 11.7381 355.02 12.6319 355.02 13.7207C355.02 14.8673 356.004 15.7961 357.218 15.7961H362.902L362.904 21.1881L362.911 21.3587C363.003 22.4307 363.944 23.2727 365.093 23.2727C366.302 23.2727 367.282 22.3393 367.282 21.1866V15.7961L372.092 15.7977L372.273 15.7916C373.403 15.7048 374.292 14.8109 374.292 13.7207C374.292 12.574 373.307 11.6437 372.092 11.6437H367.282L367.284 7.08461L367.276 6.91407Z" fill="#CBCDD2"/>
        <path d="M355.02 78.2051C355.02 75.4718 357.233 73.2562 359.964 73.2562C362.695 73.2562 364.909 75.4718 364.909 78.2051C364.909 80.9384 362.695 83.154 359.964 83.154C357.233 83.154 355.02 80.9384 355.02 78.2051Z" fill="#CBCDD2"/>
        <path fill-rule="evenodd" clip-rule="evenodd" d="M184.927 20.625C180.81 20.625 177.69 23.7999 177.69 27.5V137.5C177.69 141.2 180.81 144.375 184.927 144.375H249.003C253.121 144.375 256.24 141.2 256.24 137.5V60.4656C256.24 58.5671 257.781 57.0281 259.683 57.0281C261.584 57.0281 263.125 58.5671 263.125 60.4656V137.5C263.125 145.212 256.704 151.25 249.003 151.25H184.927C177.226 151.25 170.805 145.212 170.805 137.5V27.5C170.805 19.7876 177.226 13.75 184.927 13.75H249.003C256.704 13.75 263.125 19.7876 263.125 27.5V36.4031C263.125 38.3016 261.584 39.8406 259.683 39.8406C257.781 39.8406 256.24 38.3016 256.24 36.4031V27.5C256.24 23.7999 253.121 20.625 249.003 20.625H184.927ZM162.487 25.7789C162.964 27.6166 161.859 29.4926 160.018 29.969L141.296 34.8153C137.371 35.8345 135.21 39.6595 136.2 43.2179L163.504 141.671C164.012 143.501 162.938 145.394 161.105 145.901C159.273 146.408 157.376 145.335 156.869 143.506L129.566 45.0588C127.497 37.618 132.099 30.0986 139.564 28.1614L158.291 23.3139C160.131 22.8376 162.01 23.9411 162.487 25.7789ZM122.349 81.6192C124.01 80.6949 124.606 78.6013 123.68 76.943C122.755 75.2848 120.658 74.6898 118.997 75.6141C112.227 79.3824 109.82 87.8447 113.804 94.4763L113.806 94.4794L141.569 140.88C142.544 142.509 144.657 143.041 146.289 142.068C147.922 141.094 148.454 138.983 147.479 137.354L119.713 90.9473L119.709 90.9414C117.786 87.7422 118.869 83.5566 122.349 81.6192Z" fill="#CBCDD2"/>
    </g>
</svg>

<svg xmlns="http://www.w3.org/2000/svg" width="375" height="165" fill="none"><g id="icon" fill="#CBCDD2"><path fill-rule="evenodd" d="M12.134 126c1.27 0 2.312.984 2.413 2.234l.007.199v5.319h5.316a2.427 2.427 0 0 1 2.43 2.424c0 1.27-.981 2.313-2.23 2.414l-.2.009-5.316-.001v6.288a2.426 2.426 0 0 1-2.419 2.434 2.425 2.425 0 0 1-2.413-2.233l-.009-.199v-6.29H3.43A2.426 2.426 0 0 1 1 136.176c0-1.271.981-2.314 2.23-2.415l.2-.007 6.283-.002v-5.319a2.43 2.43 0 0 1 2.42-2.433" clip-rule="evenodd"/><path d="M41 113.949A4.947 4.947 0 0 1 45.945 109a4.947 4.947 0 0 1 4.944 4.949 4.947 4.947 0 0 1-4.944 4.949A4.947 4.947 0 0 1 41 113.949M320.806 43.62a3.01 3.01 0 0 0-2.993-2.77 3.01 3.01 0 0 0-3.003 3.016v6.6h-7.795l-.246.01A3.01 3.01 0 0 0 304 53.472a3.01 3.01 0 0 0 3.015 3.004h7.796v7.802l.009.247a3.01 3.01 0 0 0 2.993 2.771 3.01 3.01 0 0 0 3.002-3.018v-7.802l6.595.001.247-.01a3.01 3.01 0 0 0 2.769-2.995 3.01 3.01 0 0 0-3.016-3.006h-6.594v-6.6zM367.276 6.914C367.185 5.842 366.242 5 365.093 5c-1.21 0-2.191.933-2.191 2.085v4.559l-5.684.001-.179.006c-1.131.087-2.019.98-2.019 2.07 0 1.146.984 2.075 2.198 2.075h5.684l.002 5.392.007.17c.092 1.073 1.033 1.915 2.182 1.915 1.209 0 2.189-.934 2.189-2.086v-5.39h4.81l.181-.005c1.13-.087 2.019-.981 2.019-2.071 0-1.147-.985-2.077-2.2-2.077h-4.81l.002-4.56zM355.02 78.205a4.946 4.946 0 0 1 4.944-4.949 4.947 4.947 0 0 1 4.945 4.95 4.947 4.947 0 0 1-4.945 4.948 4.946 4.946 0 0 1-4.944-4.949"/><path fill-rule="evenodd" d="M184.927 20.625c-4.117 0-7.237 3.175-7.237 6.875v110c0 3.7 3.12 6.875 7.237 6.875h64.076c4.118 0 7.237-3.175 7.237-6.875V60.466a3.44 3.44 0 0 1 3.443-3.438 3.44 3.44 0 0 1 3.442 3.438V137.5c0 7.712-6.421 13.75-14.122 13.75h-64.076c-7.701 0-14.122-6.038-14.122-13.75v-110c0-7.712 6.421-13.75 14.122-13.75h64.076c7.701 0 14.122 6.038 14.122 13.75v8.903a3.44 3.44 0 0 1-3.442 3.438 3.44 3.44 0 0 1-3.443-3.438V27.5c0-3.7-3.119-6.875-7.237-6.875zm-22.44 5.154a3.437 3.437 0 0 1-2.469 4.19l-18.722 4.846c-3.925 1.02-6.086 4.845-5.096 8.403l27.304 98.453a3.443 3.443 0 0 1-6.635 1.835l-27.303-98.447c-2.069-7.441 2.533-14.96 9.998-16.898l18.727-4.847a3.443 3.443 0 0 1 4.196 2.465m-40.138 55.84a3.434 3.434 0 0 0 1.331-4.676 3.445 3.445 0 0 0-4.683-1.329c-6.77 3.768-9.177 12.23-5.193 18.862l.002.003 27.763 46.401a3.446 3.446 0 0 0 4.72 1.188 3.434 3.434 0 0 0 1.19-4.714l-27.766-46.407-.004-.006c-1.923-3.199-.84-7.384 2.64-9.322" clip-rule="evenodd"/></g></svg>
